X: 13557
T: Fly By Night
R: hornpipe
M: 4/4
K: Gminor
DC|B,FDB FdBf|dbag ^fgec|(3AcA FA cegf|ecAF =EF_EC|
B,FDB FdBf|dbag ^fgec|(3AcA FA cegf|ecGA B2:|
AB|dc=Bc _bcBc|dc=Bc acBc|dc=Bc gcBc|(3bag (3f=ed c2 =Bc|
dc=Bc _bcBc|dc=Bc acBc|c2 bg =ecBG|FEFG (3FGF (3EDC|
B,FDB FdBf|dbag ^fgec|(3AcA FA cegf|ecAF =EF_EC|
B,FDB FdBf|dbag ^fgec|(3AcA FA cegf|ecGA B4||

